Newaita-dark/apps/64/netflix.svg

<svg height="64" viewBox="0 0 64 64" width="64" xmlns="http://www.w3.org/2000/svg" xmlns:xlink="http://www.w3.org/1999/xlink"><linearGradient id="a" gradientUnits="userSpaceOnUse" x1="31.75304" x2="31.75304" y1="56.067872" y2="58.71396000006"><stop offset="0" stop-opacity=".27451"/><stop offset="1" stop-opacity="0"/></linearGradient><linearGradient id="b"><stop offset="0" stop-opacity=".313726"/><stop offset=".222222" stop-opacity=".27451"/><stop offset="1" stop-opacity="0"/></linearGradient><radialGradient id="c" cx="450.908936" cy="189.579361" gradientTransform="matrix(.00000035 -.156265 -.281277 -.0000002 104.261296 127.190665)" gradientUnits="userSpaceOnUse" r="21.166656" xlink:href="#b"/><radialGradient id="d" cx="450.908936" cy="189.579361" gradientTransform="matrix(-.00000035 .156265 .281277 .0000002 -40.755227 -15.054958)" gradientUnits="userSpaceOnUse" r="21.166656" xlink:href="#b"/><radialGradient id="e" cx="450.908936" cy="189.579361" gradientTransform="matrix(-.00000035 -.156265 .281277 -.0000002 -40.755227 127.190665)" gradientUnits="userSpaceOnUse" r="21.166656" xlink:href="#b"/><radialGradient id="f" cx="450.908936" cy="189.579361" gradientTransform="matrix(.00000035 .156265 -.281277 .0000002 104.261293 -15.054959)" gradientUnits="userSpaceOnUse" r="21.166656" xlink:href="#b"/><linearGradient id="g" gradientUnits="userSpaceOnUse" x1="21.16869799994" x2="21.16869799994" y1="56.067868" y2="5.79221000013"><stop offset="0" stop-color="#424242"/><stop offset="1" stop-color="#616161"/></linearGradient><linearGradient id="h"><stop offset="0" stop-color="#f44336"/><stop offset="1" stop-color="#ef5350"/></linearGradient><linearGradient id="i" gradientUnits="userSpaceOnUse" x1="720.00011449082" x2="720.00011449082" xlink:href="#h" y1="1415.11822549082" y2="455.11808325459"/><linearGradient id="j" gradientUnits="userSpaceOnUse" x1="41.01434400006" x2="41.01434400006" xlink:href="#h" y1="46.80656300006" y2="15.05351399997"/><linearGradient id="k" gradientUnits="userSpaceOnUse" x1="42.33739599987" x2="42.33739599987" y1="46.80656300006" y2="15.05351399997"><stop offset="0" stop-color="#e57373"/><stop offset="1" stop-color="#ef9a9a"/></linearGradient><path d="m11.90625 55.871094h39.691406v2.941406h-39.691406zm0 0" fill="url(#a)"/><path d="m51.597656 56.066406h5.292969v-2.644531h-5.292969zm0 0" fill="url(#c)"/><path d="m11.90625 56.066406h-5.292969v2.648438h5.292969zm0 0" fill="url(#d)"/><path d="m11.90625 56.066406h-5.292969v-2.644531h5.292969zm0 0" fill="url(#e)"/><path d="m51.597656 56.066406h5.292969v2.648438h-5.292969zm0 0" fill="url(#f)"/><path d="m9.261719 5.792969h44.984375c1.460937 0 2.644531 1.183593 2.644531 2.644531v44.984375c0 1.460937-1.183594 2.644531-2.644531 2.644531h-44.984375c-1.460938 0-2.648438-1.183594-2.648438-2.644531v-44.984375c0-1.460938 1.1875-2.644531 2.648438-2.644531zm0 0" fill="url(#g)"/><path d="m9.261719 5.792969c-1.464844 0-2.648438 1.179687-2.648438 2.644531v.332031c0-1.464843 1.183594-2.648437 2.648438-2.648437h44.984375c1.464844 0 2.644531 1.183594 2.644531 2.648437v-.332031c0-1.464844-1.179687-2.644531-2.644531-2.644531zm0 0" fill="#e6e6e6" fill-opacity=".392157"/><path d="m9.261719 56.066406c-1.464844 0-2.648438-1.179687-2.648438-2.644531v-.332031c0 1.46875 1.183594 2.648437 2.648438 2.648437h44.984375c1.464844 0 2.644531-1.179687 2.644531-2.648437v.332031c0 1.464844-1.179687 2.644531-2.644531 2.644531zm0 0" fill-opacity=".196078"/><path d="m74.086675-168.660675h359.840637c11.686384 0 21.15423 9.467846 21.15423 21.15423v359.840637c0 11.686384-9.467846 21.154229-21.15423 21.154229h-359.840637c-11.686384 0-21.185477-9.467845-21.185477-21.154229v-359.840637c0-11.686384 9.499093-21.15423 21.185477-21.15423zm0 0" fill="none" stroke="#212121" stroke-linecap="round" stroke-width="3" transform="matrix(.125012 0 0 .125012 0 26.877566)"/><path d="m599.94274 455.153409v959.908384h1.299088c62.946749-26.454168 129.554565-46.176695 198.760558-58.222789v-901.685595zm0 0" fill="url(#i)" stroke="#212121" stroke-width="11.338583" transform="scale(.0330761)"/><path d="m37.046875 15.054688v29.824218c2.289063.398438 4.492187 1.050782 6.574219 1.925782h.039062v-31.75zm0 0" fill="url(#j)"/><path d="m37.046875 15.21875v.660156h6.613281v-.660156zm0 0" fill="#fff" fill-opacity=".392157"/><path d="m1120.05058 455.153409v901.685595c69.205993 12.046094 135.813809 31.768621 198.760557 58.222789h1.18099v-959.908384zm0 0" fill="none" stroke="#212121" stroke-width="11.338583" transform="scale(.0330761)"/><path d="m19.84375 15.054688 16.0625 29.648437c2.699219.363281 5.289062 1.082031 7.714844 2.101563h.039062l-17.199218-31.75zm0 0" fill="url(#k)"/><path d="m19.84375 15.25.359375.660156h6.257813l16.75 30.925782c.136718.054687.273437.109374.410156.167968h.039062l-17.199218-31.753906zm0 0" fill="#fff" fill-opacity=".392157"/><path d="m26.460938 27.265625v.9375l9.445312 17.433594c.394531.054687.789062.117187 1.183594.183593.117187.023438.238281.042969.359375.066407.023437.003906.046875.011719.070312.015625.121094.019531.238281.042968.355469.070312.011719 0 .023438.003906.03125.003906h.003906c.128906.027344.253906.054688.382813.082032.015625.003906.035156.007812.050781.011718.125.027344.25.054688.375.085938.019531.003906.039062.007812.058594.011719.128906.03125.257812.0625.382812.09375.007813 0 .011719 0 .019532.003906l.375.09375c.011718.003906.027343.007813.042968.011719.121094.035156.246094.066406.371094.101562.015625.003906.035156.011719.054688.015625.125.035157.246093.070313.371093.105469.015625.003906.03125.011719.046875.015625.125.035156.253906.074219.378906.113281.125.039063.25.078125.371094.117188.019532.007812.039063.015625.0625.019531.117188.039063.234375.078125.347656.117187.023438.007813.046876.015626.070313.023438.117187.039062.234375.082031.351563.125.015624.003906.027343.007812.042968.011719.113282.042969.230469.085937.34375.128906.011719.003906.023438.007813.035156.011719.117188.042968.238282.089844.355469.132812.019531.007813.039063.015625.058594.027344.117187.042969.230469.089844.34375.132812.023437.007813.042969.019532.0625.027344.117187.046875.234375.097656.355469.144532h.039062v-.9375h-.039062c-.121094-.046876-.238282-.097657-.355469-.144532-.019531-.007812-.039063-.015625-.0625-.023437-.113281-.046875-.226563-.09375-.34375-.136719-.019531-.007812-.039063-.015625-.058594-.023438-.117187-.046874-.238281-.09375-.355469-.136718-.011718-.003906-.023437-.007813-.035156-.011719-.113281-.042969-.230468-.085937-.34375-.125-.015625-.007813-.027344-.011719-.042968-.015625-.117188-.042969-.234376-.082031-.351563-.125-.023437-.007812-.046875-.015625-.070313-.023438-.113281-.039062-.230468-.078124-.347656-.117187-.023437-.003906-.042968-.011719-.0625-.019531-.121094-.039063-.246094-.078125-.371094-.117188-.125-.039062-.253906-.074218-.378906-.113281-.015625-.003906-.03125-.007813-.046875-.015625-.125-.035156-.246093-.070312-.371093-.105469-.019532-.003906-.039063-.007812-.054688-.015625-.125-.035156-.25-.066406-.371094-.101562-.015625 0-.03125-.003906-.042968-.007813-.125-.035156-.25-.066406-.375-.097656-.007813 0-.011719-.003906-.019532-.003906-.125-.03125-.253906-.0625-.382812-.09375-.019532-.003907-.039063-.007813-.058594-.011719-.125-.03125-.25-.058594-.375-.085938-.015625-.003906-.035156-.007812-.050781-.011718-.128907-.027344-.253907-.054688-.382813-.078125 0-.003907-.003906-.003907-.003906-.003907-.007812 0-.019531-.003906-.03125-.003906-.117188-.023437-.234375-.046875-.355469-.070312-.023437-.003906-.046875-.007813-.070312-.015625-.121094-.019531-.242188-.042969-.359375-.0625-.394532-.070313-.789063-.132813-1.183594-.183594zm0 17.613281c-2.289063.398438-4.492188 1.050782-6.574219 1.925782h-.042969v.9375h.042969c2.082031-.875 4.285156-1.53125 6.574219-1.929688zm0 0" fill-opacity=".235294"/><path d="m599.94274 455.153409 485.622942 896.371141c81.606385 10.983204 159.905998 32.713413 233.245455 63.537243h1.18099l-519.989741-959.908384zm0 0" fill="none" stroke="#212121" stroke-width="11.338583" transform="scale(.0330761)"/></svg>

<?xml version="1.0" encoding="UTF-8"?>
<svg xmlns="http://www.w3.org/2000/svg" xmlns:xlink="http://www.w3.org/1999/xlink" width="64px" height="64px" viewBox="0 0 64 64" version="1.1">
<defs>
<linearGradient id="linear0" gradientUnits="userSpaceOnUse" x1="254" y1="233.5" x2="254" y2="254.666672" gradientTransform="matrix(0.125012,0,0,0.125012,-0.00000763012,26.87757)">
<stop offset="0" style="stop-color:rgb(0%,0%,0%);stop-opacity:0.27451;"/>
<stop offset="1" style="stop-color:rgb(0%,0%,0%);stop-opacity:0;"/>
</linearGradient>
<radialGradient id="radial0" gradientUnits="userSpaceOnUse" cx="450.908936" cy="189.579361" fx="450.908936" fy="189.579361" r="21.166656" gradientTransform="matrix(0.000000348341,-0.156265,-0.281277,-0.000000203077,104.261296,127.190665)">
<stop offset="0" style="stop-color:rgb(0%,0%,0%);stop-opacity:0.313726;"/>
<stop offset="0.222222" style="stop-color:rgb(0%,0%,0%);stop-opacity:0.27451;"/>
<stop offset="1" style="stop-color:rgb(0%,0%,0%);stop-opacity:0;"/>
</radialGradient>
<radialGradient id="radial1" gradientUnits="userSpaceOnUse" cx="450.908936" cy="189.579361" fx="450.908936" fy="189.579361" r="21.166656" gradientTransform="matrix(-0.000000348341,0.156265,0.281277,0.000000203077,-40.755227,-15.054958)">
<stop offset="0" style="stop-color:rgb(0%,0%,0%);stop-opacity:0.313726;"/>
<stop offset="0.222222" style="stop-color:rgb(0%,0%,0%);stop-opacity:0.27451;"/>
<stop offset="1" style="stop-color:rgb(0%,0%,0%);stop-opacity:0;"/>
</radialGradient>
<radialGradient id="radial2" gradientUnits="userSpaceOnUse" cx="450.908936" cy="189.579361" fx="450.908936" fy="189.579361" r="21.166656" gradientTransform="matrix(-0.000000348341,-0.156265,0.281277,-0.000000203077,-40.755227,127.190665)">
<stop offset="0" style="stop-color:rgb(0%,0%,0%);stop-opacity:0.313726;"/>
<stop offset="0.222222" style="stop-color:rgb(0%,0%,0%);stop-opacity:0.27451;"/>
<stop offset="1" style="stop-color:rgb(0%,0%,0%);stop-opacity:0;"/>
</radialGradient>
<radialGradient id="radial3" gradientUnits="userSpaceOnUse" cx="450.908936" cy="189.579361" fx="450.908936" fy="189.579361" r="21.166656" gradientTransform="matrix(0.000000348341,0.156265,-0.281277,0.000000203077,104.261293,-15.054959)">
<stop offset="0" style="stop-color:rgb(0%,0%,0%);stop-opacity:0.313726;"/>
<stop offset="0.222222" style="stop-color:rgb(0%,0%,0%);stop-opacity:0.27451;"/>
<stop offset="1" style="stop-color:rgb(0%,0%,0%);stop-opacity:0;"/>
</radialGradient>
<linearGradient id="linear1" gradientUnits="userSpaceOnUse" x1="169.333328" y1="233.5" x2="169.333328" y2="-168.666656" gradientTransform="matrix(0.125012,0,0,0.125012,0,26.877566)">
<stop offset="0" style="stop-color:rgb(25.882354%,25.882354%,25.882354%);stop-opacity:1;"/>
<stop offset="1" style="stop-color:rgb(38.039216%,38.039216%,38.039216%);stop-opacity:1;"/>
</linearGradient>
<linearGradient id="linear2" gradientUnits="userSpaceOnUse" x1="179.916672" y1="159.416672" x2="179.916672" y2="-94.583336" gradientTransform="matrix(3.779528,0,0,3.779528,40.000015,812.59845)">
<stop offset="0" style="stop-color:rgb(95.686275%,26.274511%,21.176471%);stop-opacity:1;"/>
<stop offset="1" style="stop-color:rgb(93.725491%,32.549021%,31.37255%);stop-opacity:1;"/>
</linearGradient>
<linearGradient id="linear3" gradientUnits="userSpaceOnUse" x1="179.916672" y1="159.416672" x2="179.916672" y2="-94.583336" gradientTransform="matrix(0.125012,0,0,0.125012,18.522601,26.877566)">
<stop offset="0" style="stop-color:rgb(95.686275%,26.274511%,21.176471%);stop-opacity:1;"/>
<stop offset="1" style="stop-color:rgb(93.725491%,32.549021%,31.37255%);stop-opacity:1;"/>
</linearGradient>
<linearGradient id="linear4" gradientUnits="userSpaceOnUse" x1="338.666656" y1="159.416672" x2="338.666656" y2="-94.583336" gradientTransform="matrix(0.125012,0,0,0.125012,0,26.877566)">
<stop offset="0" style="stop-color:rgb(89.803922%,45.09804%,45.09804%);stop-opacity:1;"/>
<stop offset="1" style="stop-color:rgb(93.725491%,60.392159%,60.392159%);stop-opacity:1;"/>
</linearGradient>
</defs>
<g id="surface1">
<path style=" stroke:none;fill-rule:nonzero;fill:url(#linear0);" d="M 11.90625 55.871094 L 51.597656 55.871094 L 51.597656 58.8125 L 11.90625 58.8125 Z M 11.90625 55.871094 "/>
<path style=" stroke:none;fill-rule:nonzero;fill:url(#radial0);" d="M 51.597656 56.066406 L 56.890625 56.066406 L 56.890625 53.421875 L 51.597656 53.421875 Z M 51.597656 56.066406 "/>
<path style=" stroke:none;fill-rule:nonzero;fill:url(#radial1);" d="M 11.90625 56.066406 L 6.613281 56.066406 L 6.613281 58.714844 L 11.90625 58.714844 Z M 11.90625 56.066406 "/>
<path style=" stroke:none;fill-rule:nonzero;fill:url(#radial2);" d="M 11.90625 56.066406 L 6.613281 56.066406 L 6.613281 53.421875 L 11.90625 53.421875 Z M 11.90625 56.066406 "/>
<path style=" stroke:none;fill-rule:nonzero;fill:url(#radial3);" d="M 51.597656 56.066406 L 56.890625 56.066406 L 56.890625 58.714844 L 51.597656 58.714844 Z M 51.597656 56.066406 "/>
<path style=" stroke:none;fill-rule:nonzero;fill:url(#linear1);" d="M 9.261719 5.792969 L 54.246094 5.792969 C 55.707031 5.792969 56.890625 6.976562 56.890625 8.4375 L 56.890625 53.421875 C 56.890625 54.882812 55.707031 56.066406 54.246094 56.066406 L 9.261719 56.066406 C 7.800781 56.066406 6.613281 54.882812 6.613281 53.421875 L 6.613281 8.4375 C 6.613281 6.976562 7.800781 5.792969 9.261719 5.792969 Z M 9.261719 5.792969 "/>
<path style=" stroke:none;fill-rule:nonzero;fill:rgb(90.196079%,90.196079%,90.196079%);fill-opacity:0.392157;" d="M 9.261719 5.792969 C 7.796875 5.792969 6.613281 6.972656 6.613281 8.4375 L 6.613281 8.769531 C 6.613281 7.304688 7.796875 6.121094 9.261719 6.121094 L 54.246094 6.121094 C 55.710938 6.121094 56.890625 7.304688 56.890625 8.769531 L 56.890625 8.4375 C 56.890625 6.972656 55.710938 5.792969 54.246094 5.792969 Z M 9.261719 5.792969 "/>
<path style=" stroke:none;fill-rule:nonzero;fill:rgb(0%,0%,0%);fill-opacity:0.196078;" d="M 9.261719 56.066406 C 7.796875 56.066406 6.613281 54.886719 6.613281 53.421875 L 6.613281 53.089844 C 6.613281 54.558594 7.796875 55.738281 9.261719 55.738281 L 54.246094 55.738281 C 55.710938 55.738281 56.890625 54.558594 56.890625 53.089844 L 56.890625 53.421875 C 56.890625 54.886719 55.710938 56.066406 54.246094 56.066406 Z M 9.261719 56.066406 "/>
<path style="fill:none;stroke-width:3;stroke-linecap:round;stroke-linejoin:miter;stroke:rgb(12.941177%,12.941177%,12.941177%);stroke-opacity:1;stroke-miterlimit:4;" d="M 74.086675 -168.660675 L 433.927312 -168.660675 C 445.613696 -168.660675 455.081542 -159.192829 455.081542 -147.506445 L 455.081542 212.334192 C 455.081542 224.020576 445.613696 233.488421 433.927312 233.488421 L 74.086675 233.488421 C 62.400291 233.488421 52.901198 224.020576 52.901198 212.334192 L 52.901198 -147.506445 C 52.901198 -159.192829 62.400291 -168.660675 74.086675 -168.660675 Z M 74.086675 -168.660675 " transform="matrix(0.125012,0,0,0.125012,0,26.877566)"/>
<path style="fill-rule:nonzero;fill:url(#linear2);stroke-width:11.338583;stroke-linecap:butt;stroke-linejoin:miter;stroke:rgb(12.941177%,12.941177%,12.941177%);stroke-opacity:1;stroke-miterlimit:4;" d="M 599.94274 455.153409 L 599.94274 1415.061793 L 601.241828 1415.061793 C 664.188577 1388.607625 730.796393 1368.885098 800.002386 1356.839004 L 800.002386 455.153409 Z M 599.94274 455.153409 " transform="matrix(0.0330761,0,0,0.0330761,0,0)"/>
<path style=" stroke:none;fill-rule:nonzero;fill:url(#linear3);" d="M 37.046875 15.054688 L 37.046875 44.878906 C 39.335938 45.277344 41.539062 45.929688 43.621094 46.804688 L 43.660156 46.804688 L 43.660156 15.054688 Z M 37.046875 15.054688 "/>
<path style=" stroke:none;fill-rule:nonzero;fill:rgb(100%,100%,100%);fill-opacity:0.392157;" d="M 37.046875 15.21875 L 37.046875 15.878906 L 43.660156 15.878906 L 43.660156 15.21875 Z M 37.046875 15.21875 "/>
<path style="fill:none;stroke-width:11.338583;stroke-linecap:butt;stroke-linejoin:miter;stroke:rgb(12.941177%,12.941177%,12.941177%);stroke-opacity:1;stroke-miterlimit:4;" d="M 1120.05058 455.153409 L 1120.05058 1356.839004 C 1189.256573 1368.885098 1255.864389 1388.607625 1318.811137 1415.061793 L 1319.992127 1415.061793 L 1319.992127 455.153409 Z M 1120.05058 455.153409 " transform="matrix(0.0330761,0,0,0.0330761,0,0)"/>
<path style=" stroke:none;fill-rule:nonzero;fill:url(#linear4);" d="M 19.84375 15.054688 L 35.90625 44.703125 C 38.605469 45.066406 41.195312 45.785156 43.621094 46.804688 L 43.660156 46.804688 L 26.460938 15.054688 Z M 19.84375 15.054688 "/>
<path style=" stroke:none;fill-rule:nonzero;fill:rgb(100%,100%,100%);fill-opacity:0.392157;" d="M 19.84375 15.25 L 20.203125 15.910156 L 26.460938 15.910156 L 43.210938 46.835938 C 43.347656 46.890625 43.484375 46.945312 43.621094 47.003906 L 43.660156 47.003906 L 26.460938 15.25 Z M 19.84375 15.25 "/>
<path style=" stroke:none;fill-rule:nonzero;fill:rgb(0%,0%,0%);fill-opacity:0.235294;" d="M 26.460938 27.265625 L 26.460938 28.203125 L 35.90625 45.636719 C 36.300781 45.691406 36.695312 45.753906 37.089844 45.820312 C 37.207031 45.84375 37.328125 45.863281 37.449219 45.886719 C 37.472656 45.890625 37.496094 45.898438 37.519531 45.902344 C 37.640625 45.921875 37.757812 45.945312 37.875 45.972656 C 37.886719 45.972656 37.898438 45.976562 37.90625 45.976562 C 37.90625 45.976562 37.910156 45.976562 37.910156 45.976562 C 38.039062 46.003906 38.164062 46.03125 38.292969 46.058594 C 38.308594 46.0625 38.328125 46.066406 38.34375 46.070312 C 38.46875 46.097656 38.59375 46.125 38.71875 46.15625 C 38.738281 46.160156 38.757812 46.164062 38.777344 46.167969 C 38.90625 46.199219 39.035156 46.230469 39.160156 46.261719 C 39.167969 46.261719 39.171875 46.261719 39.179688 46.265625 C 39.304688 46.296875 39.429688 46.328125 39.554688 46.359375 C 39.566406 46.363281 39.582031 46.367188 39.597656 46.371094 C 39.71875 46.40625 39.84375 46.4375 39.96875 46.472656 C 39.984375 46.476562 40.003906 46.484375 40.023438 46.488281 C 40.148438 46.523438 40.269531 46.558594 40.394531 46.59375 C 40.410156 46.597656 40.425781 46.605469 40.441406 46.609375 C 40.566406 46.644531 40.695312 46.683594 40.820312 46.722656 C 40.945312 46.761719 41.070312 46.800781 41.191406 46.839844 C 41.210938 46.847656 41.230469 46.855469 41.253906 46.859375 C 41.371094 46.898438 41.488281 46.9375 41.601562 46.976562 C 41.625 46.984375 41.648438 46.992188 41.671875 47 C 41.789062 47.039062 41.90625 47.082031 42.023438 47.125 C 42.039062 47.128906 42.050781 47.132812 42.066406 47.136719 C 42.179688 47.179688 42.296875 47.222656 42.410156 47.265625 C 42.421875 47.269531 42.433594 47.273438 42.445312 47.277344 C 42.5625 47.320312 42.683594 47.367188 42.800781 47.410156 C 42.820312 47.417969 42.839844 47.425781 42.859375 47.4375 C 42.976562 47.480469 43.089844 47.527344 43.203125 47.570312 C 43.226562 47.578125 43.246094 47.589844 43.265625 47.597656 C 43.382812 47.644531 43.5 47.695312 43.621094 47.742188 L 43.660156 47.742188 L 43.660156 46.804688 L 43.621094 46.804688 C 43.5 46.757812 43.382812 46.707031 43.265625 46.660156 C 43.246094 46.652344 43.226562 46.644531 43.203125 46.636719 C 43.089844 46.589844 42.976562 46.542969 42.859375 46.5 C 42.839844 46.492188 42.820312 46.484375 42.800781 46.476562 C 42.683594 46.429688 42.5625 46.382812 42.445312 46.339844 C 42.433594 46.335938 42.421875 46.332031 42.410156 46.328125 C 42.296875 46.285156 42.179688 46.242188 42.066406 46.203125 C 42.050781 46.195312 42.039062 46.191406 42.023438 46.1875 C 41.90625 46.144531 41.789062 46.105469 41.671875 46.0625 C 41.648438 46.054688 41.625 46.046875 41.601562 46.039062 C 41.488281 46 41.371094 45.960938 41.253906 45.921875 C 41.230469 45.917969 41.210938 45.910156 41.191406 45.902344 C 41.070312 45.863281 40.945312 45.824219 40.820312 45.785156 C 40.695312 45.746094 40.566406 45.710938 40.441406 45.671875 C 40.425781 45.667969 40.410156 45.664062 40.394531 45.65625 C 40.269531 45.621094 40.148438 45.585938 40.023438 45.550781 C 40.003906 45.546875 39.984375 45.542969 39.96875 45.535156 C 39.84375 45.5 39.71875 45.46875 39.597656 45.433594 C 39.582031 45.433594 39.566406 45.429688 39.554688 45.425781 C 39.429688 45.390625 39.304688 45.359375 39.179688 45.328125 C 39.171875 45.328125 39.167969 45.324219 39.160156 45.324219 C 39.035156 45.292969 38.90625 45.261719 38.777344 45.230469 C 38.757812 45.226562 38.738281 45.222656 38.71875 45.21875 C 38.59375 45.1875 38.46875 45.160156 38.34375 45.132812 C 38.328125 45.128906 38.308594 45.125 38.292969 45.121094 C 38.164062 45.09375 38.039062 45.066406 37.910156 45.042969 C 37.910156 45.039062 37.90625 45.039062 37.90625 45.039062 C 37.898438 45.039062 37.886719 45.035156 37.875 45.035156 C 37.757812 45.011719 37.640625 44.988281 37.519531 44.964844 C 37.496094 44.960938 37.472656 44.957031 37.449219 44.949219 C 37.328125 44.929688 37.207031 44.90625 37.089844 44.886719 C 36.695312 44.816406 36.300781 44.753906 35.90625 44.703125 Z M 26.460938 44.878906 C 24.171875 45.277344 21.96875 45.929688 19.886719 46.804688 L 19.84375 46.804688 L 19.84375 47.742188 L 19.886719 47.742188 C 21.96875 46.867188 24.171875 46.210938 26.460938 45.8125 Z M 26.460938 44.878906 "/>
<path style="fill:none;stroke-width:11.338583;stroke-linecap:butt;stroke-linejoin:miter;stroke:rgb(12.941177%,12.941177%,12.941177%);stroke-opacity:1;stroke-miterlimit:4;" d="M 599.94274 455.153409 L 1085.565682 1351.52455 C 1167.172067 1362.507754 1245.47168 1384.237963 1318.811137 1415.061793 L 1319.992127 1415.061793 L 800.002386 455.153409 Z M 599.94274 455.153409 " transform="matrix(0.0330761,0,0,0.0330761,0,0)"/>
</g>
</svg>
